X: 25687
T: Martin Wynne's
R: reel
M: 4/4
K: Gmajor
BGAG EDB,C|DGBA G2FG|EB,~B,2 G,A,B,D|EGAB cedc|
BGAG EDB,C|DGBA G2FG|EB,~B,2 G,A,B,D|EGAc BG~G2:|
|:B3d c3d|BGDG EA~A2|BddB dega|bgah ea~a2|
bg~g2 afgf|eB~B2 GA Bd|dBcB cBAG|FGAc BG~G2:|

